X:1
T:Magnificat septimi toni - Soriano
T:#
%%score [ 1 2 3 4 ]
L:1/8
Q:1/4=130
M:none
K:C
V:1 treble nm="S" snm="S"
V:2 treble nm="A" snm="A"
V:3 treble-8 nm="T" snm="T"
V:4 treble nm="B" snm="B"
V:1
 z14 ||[K:Bb][K:treble][Q:1/4=200][Q:1/4=200][Q:1/4=200][Q:1/4=200] A8 A4 A4 | B8 B4 (A4- | %3
w: |A- ni- ma|me- a Do\-|
 A2 G2 G8) ^F4 | G16 ||[Q:1/4=130][Q:1/4=130][Q:1/4=130][Q:1/4=130] z28 | z20 || %7
w: * * * mi-|num.|||
[M:4/2][Q:1/4=200][Q:1/4=200][Q:1/4=200][Q:1/4=200] B8 A4 B4 | c8 c4 c4 | c4 c4 c8 | c4 c4 e8 | %11
w: Qui- a re-|spe- xit hu-|mi- li- ta-|tem an- cil-|
 d4 (d8 c4) | d4 =B8 c4 | d8 d8- | d8 z8 | z16 | z16 | z4 B8 B4 | A4 A4 (B4 A2 G2 | A8) G4 (A4- | %20
w: lae su\- *|ae: ec- ce|e- nim||||o- mnes|ge- ne- ra\- * *|* ti- o\-|
 A2 G2 G8 ^F4) | G16 ||[Q:1/4=130][Q:1/4=130][Q:1/4=130][Q:1/4=130] z30 | z18 || %24
w: |nes.|||
[M:4/2][Q:1/4=200][Q:1/4=200][Q:1/4=200][Q:1/4=200] z16 | z16 | z16 | z16 | z4 d8 f4 | e4 d4 c8 | %30
w: ||||A pro-|ge- ni- e|
 B8 B8 | c12 c4 | d4 B4 B4 A4 | B4 (G8 ^F4) | G16 || %35
w: in pro-|ge- ni-|es ti- men- ti-|bus e\- *|um.|
[Q:1/4=130][Q:1/4=130][Q:1/4=130][Q:1/4=130] z28 | z20 || %37
w: ||
[M:4/2][Q:1/4=200][Q:1/4=200][Q:1/4=200][Q:1/4=200] G8 A6 A2 | A4 A4 B8 | B4 B4 B8- | B4 G4 z8 | %41
w: De- po- su-|it po- ten-|tes de se\-|* de,|
 z4 B4 B4 A4 | G4 G4 ^F4 F4 | G16 ||[Q:1/4=130][Q:1/4=130][Q:1/4=130][Q:1/4=130] z26 | z22 || %46
w: et ex- al-|ta- vit hu- mi-|les.|||
[M:4/2][Q:1/4=200][Q:1/4=200][Q:1/4=200][Q:1/4=200] z16 | z16 | z16 | (d6 e2 f4) c4 | e8 d4 d4 | %51
w: |||Re\- * * cor-|da- tus mi-|
 c4 c4 c8- | c4 =B4 (c2 _B2 A2 G2 | ^F4) (G8 F4) | G16 || %55
w: se- ri- cor\-|* di- ae * * *|* su\- *|ae.|
[Q:1/4=130][Q:1/4=130][Q:1/4=130][Q:1/4=130] z26 | z24 || %57
w: ||
[M:4/2][Q:1/4=200][Q:1/4=200][Q:1/4=200][Q:1/4=200] A12 A4 | A8 B8 | B4 d4 c4 c4 | d8 =B8- | %61
w: Glo- ri-|a Pa-|tri, et Fi- li-|o, et|
 B4 c4 d8- | d4 c4 B4 (A4- | A2 G2 G8 ^F4) | G16 || %65
w: * Spi- ri\-|* tu- i san\-||cto:|
[Q:1/4=130][Q:1/4=130][Q:1/4=130][Q:1/4=130] z26 | z20 |] %67
w: ||
V:2
 z14 ||[K:Bb][K:treble] z4 F6 F2 F4 | F12 F4 | D12 D4 | D16 || z28 | z20 ||[M:4/2] G8 ^F4 G4 | %8
w: |A- ni- ma|me- a|Do- mi-|num.|||Qui- a re-|
 A8 A4 A4 | A4 A4 G8 | G4 A4 B8- | B4 B4 G8 | G8 G6 G2 | B8 B4 F4 | F4 G4 F8 | F4 D8 (E4- | %16
w: spe- xit hu-|mi- li- ta-|tem an- cil\-|* lae su-|ae: ec- ce|e- nim ex|hoc be- a-|tam me di\-|
 E2 D2 D2 CB, C8) | D4 F8 F4 | F8 F8 | F12 E4 | (C8 D8) | D16 || z30 | z18 ||[M:4/2] z16 | %25
w: |cent o- mnes|ge- ne-|ra- ti-|o\- *|nes.||||
 G6 G2 G4 A4 | B12 B4 | A4 (F2 G2 A2 F2 G4) | F4 F8 B4 | G4 B4 A4 A4 | F4 (G6 A2 B4- | %31
w: Et mi- se- ri-|cor- di-|a e\- * * * *|ius a pro-|ge- ni- e in|pro- ge\- * *|
 B4 A2 G2 A4) A4 | B4 F4 F4 F4 | D8 D8 | D16 || z28 | z20 ||[M:4/2] D8 F6 F2 | F4 F4 G8 | %39
w: * * * * ni-|es ti- men- ti-|bus e-|um..|||De- po- su-|it po- ten-|
 F4 D8 (G4- | G2 A2 B2 AG A2 B2 G4 | F4) F4 G4 F4 | D4 E4 D6 D2 | D16 || z26 | z22 ||[M:4/2] z16 | %47
w: tes de se\-||* de, et ex-|ta- vit hu- mi-|les.||||
 z16 | z8 (G6 A2 | B4) F4 _A8 | G8 z4 B4 | A4 A4 G8 | G4 (G6 F2 E4) | D16 | D16 || z26 | z24 || %57
w: |Re\- *|* cor- da-|tus mi-|se- ri- cor-|di- ae * *|su-|ae.|||
[M:4/2] F12 F4 | F8 G8 | F4 B4 A4 G4 | A8 z4 G4- | G4 G4 B8- | B4 A4 G4 (F4- | F2 ED C4 D8) | %64
w: Glo- ri-|a Pa-|tri, et Fi- li-|o, et|* Spi- ri\-|* tu- i san\-||
 D16 || z26 | z20 |] %67
w: cto:|||
V:3
[K:Bb]"^Magnificat septimi toni""^Francesco Soriano\n(1549-1621)" B2 A2 B2 c2 c2 c4 || c8 c4 c4 | %2
w: Ma\- * gni\- * fi- cat|A- ni- ma|
 d12 c4 | B4 B4 (A8 | G16) || B2 A2 B2 c2 c8 e2 d2 d2 c2 d4 | c8 d2 c2 B2 A2 G4 || %7
w: me- a|Do- mi- num.||Et * ex\- * ultavit spi- ri- tus me- us|in~Deo~salu- ta- ri me- o. *|
[M:4/2][K:treble-8] d8 d4 d4 | f8 f4 c4 | f4 f4 =e8 | =e4 f4 g8 | f8 e8 | d4 d8 e4 | f8 f8 | %14
w: Qui- a re-|spe- xit hu-|mi- li- ta-|tem an- cil-|lae su-|ae: ec- ce|e- nim|
 z4 d4 d4 c4 | (d3 e f4) B4 (c4- | c2 B2 B8) A4 | B4 d8 d4 | c8 d8 | c8 c4 (c4- | c2 B2 A2 G2 A8) | %21
w: ex hoc be-|a\- * * tam me|* * * di-|cent o- mnes|ge- ne-|ra- ti- o\-||
 G16 || B2 A2 B2 c2 c8 e2 d2 d2 c2 d2 d4 | c2 d2 c2 c2 B2 B2 A2 G4 || %24
w: nes.|Qui\- * a * fecit~mihi ma- gna qui po- tens est:|et san- ctum no- men e- ius. *|
[M:4/2][K:treble-8] c6 c2 c4 d4 | e12 e4 | d4 (B2 c2 d2 B2 e4- | e2 d2 d8 c4) | d8 B6 B2 | %29
w: Et mi- se- ri-|cor- di-|a e\- * * * *||ius a pro-|
 c4 B4 (f6 e2 | d4) e8 g4 | f12 f4 | f4 d4 d4 c4 | B8 A8 | G16 || B2 A2 B2 c2 c8 e2 d2 d2 c2 d4 | %36
w: ge- ni- e *|* in pro-|ge- ni-|es ti- men- ti-|bus e-|um.|Fe\- * cit * potentiam~in bra- chi- o su- o,|
 c8 d2 c2 B2 A2 G4 ||[M:4/2][K:treble-8] B8 c6 c2 | c4 c4 e8 | d4 f8 (e4- | e2 d2 d6 cB) c4 | %41
w: dispersit~superbos~mente cor- dis su- i. *|De- po- su-|it po- ten-|tes de se\-|* * * * * de,|
 d4 d4 e4 c4 | =B4 c4 A4 A4 | G16 || B2 A2 B2 c2 c8 e2 d2 c2 d4 | c8 d2 c2 c2 B2 A2 G4 || %46
w: et ex- al- *|ta- vit hu- mi-|les.|E\- * su\- * rientes~im- ple- vit bo- nis:|et~divites~di- mi- sit i- na- nes. *|
[M:4/2][K:treble-8] z4 d8 f4 | c4 e6 e2 d4 | f6 f2 e8 | f8 f8 | z4 g4 f4 f4 | f12 e4 | %52
w: Su- sce-|pit Is- ra- el|pu- e- rum|su- um,|mi- se- ri-|cor- di-|
 (d6 cd e2 d2 c2 B2 | A4 G4) A8 | G16 || B2 A2 B2 c2 c8 e2 d2 c2 d4 | c8 d2 c2 c2 B2 B2 A2 G4 || %57
w: ae * * * * * *|* * su-|ae.|Si\- * cut * locutus~est~ad pa- tres no- stros,|Abraham~et~semini e- ius in sae- cu- la. *|
[M:4/2][K:treble-8] c12 c4 | c8 e8 | d4 f8 g4- | g4 ^f4 g4 d4- | d4 e4 f8- | f4 f4 d8 | %63
w: Glo- ri-|a Pa-|tri, et Fi\-|* li- o, et|* Spi- ri\-|* tu- i|
 (c2 B2 A2 G2 A8) | G16 || B2 A2 B2 c2 c8 e2 d2 c2 d4 | c8 d2 c2 B2 A2 G4 |] %67
w: san\- * * * *|cto:|Si\- * cut * erat~in~principio,~et nunc, et sem- per,|et~in~saecula~saecu- lor- um. A- men. *|
V:4
 z14 ||[K:Bb][K:bass] F,8 F,4 F,4 | B,12 F,4 | (G,8 D,6) D,2 | G,,16 || z28 | z20 || %7
w: |A- ni- ma|me- a|Do\- * mi-|num.|||
[M:4/2] G,8 D,4 G,4 | F,8 F,4 F,4 | F,4 F,4 C,8 | C,4 F,4 (E,2 F,2 G,2 A,2 | B,4) B,,4 C,8 | %12
w: Qui- a re-|spe- xit hu-|mi- li- ta-|tem an- cil\- * * *|* lae su-|
 G,,4 G,8 C4 | B,8 B,,8 | B,8 B,4 A,4 | B,8 G,4 E,4 | G,8 F,8 | z4 B,,8 B,,4 | %18
w: ae: ec- ce|e- nim|ex hoc be-|a- tam me|di- cent|o- mnes|
 F,4 F,4 (B,,2 C,2 D,2 E,2 | F,4) F,4 (C,6 D,2 | E,8 D,8) | G,,16 || z30 | z18 ||[M:4/2] z16 | %25
w: ge- ne- ra\- * * *|* ti- o\- *||nes.||||
 C,6 C,2 C,4 C,4 | G,12 G,4 | F,4 (D,2 E,2 F,2 D,2 E,4) | B,,16 | z16 | z16 | z8 z4 F,4 | %32
w: Et mi- se- ri-|cor- di-|a e\- * * * *|ius|||ti-|
 B,12 F,4 | G,8 D,8 | G,,16 || z28 | z20 ||[M:4/2] G,8 F,6 F,2 | F,4 F,4 (E,2 F,2 G,2 A,2 | %39
w: men- ti-|bus e-|um.|||De- po- su-|it po- ten\- * * *|
 B,8) B,4 E,4 | (G,6 F,E, F,2 G,2 E,4) | B,,4 B,4 E,4 F,4 | G,4 C,4 D,4 D,4 | G,,16 || z26 | z22 || %46
w: * tes de|se\- * * * * *|de, et ex- al-|ta- vit hu- mi-|les.|||
[M:4/2] G,8 B,4 F,4 | _A,6 A,2 G,4 B,4- | B,2 B,2 F,4 C8 | B,8 z8 | z4 E,4 (B,,2 C,2 D,2 E,2 | %51
w: Su- sce- pit|Is- ra- el pu\-|* e- rum su-|um,|mi- se\- * * *|
 F,4) F,4 (C,2 D,2 E,2 F,2 | G,4) G,4 C,8 | D,16 | G,,16 || z26 | z24 ||[M:4/2] F,12 F,4 | %58
w: * ri- cor\- * * *|* di- ae|su-|ae.|||Glo- ri-|
 F,8 E,8 | B,,4 B,,4 F,4 E,4 | D,8 z4 G,4- | G,4 C4 B,8- | B,4 F,4 G,4 (D,2 E,2 | %63
w: a Pa-|tri, et Fi- li-|o, et|* Spi- ri\-|* tu- i san\- *|
 F,2 G,2 E,4 D,8) | G,,16 || z26 | z20 |] %67
w: |cto:|||

